icon/lg/ycombinator.svg

<?xml version="1.0" encoding="UTF-8" standalone="no"?>
<svg viewBox="0 0 256 256" version="1.1" xmlns="http://www.w3.org/2000/svg" xmlns:xlink="http://www.w3.org/1999/xlink" preserveAspectRatio="xMidYMid" height="1em" width="1em">
  <g>
    <rect fill="#FB651E" x="0" y="0" width="256" height="256"/>
    <path d="M119.373653,144.745813 L75.43296,62.4315733 L95.5144533,62.4315733 L121.36192,114.52416 C121.759575,115.452022 122.2235,116.413008 122.753707,117.407147 C123.283914,118.401285 123.747838,119.428546 124.145493,120.48896 C124.410597,120.886615 124.609422,121.251127 124.741973,121.582507 C124.874525,121.913886 125.007075,122.212123 125.139627,122.477227 C125.802386,123.802744 126.39886,125.095105 126.929067,126.354347 C127.459274,127.613589 127.923198,128.773399 128.320853,129.833813 C129.381268,127.580433 130.541078,125.1614 131.80032,122.57664 C133.059562,119.99188 134.351922,117.307747 135.67744,114.52416 L161.92256,62.4315733 L180.612267,62.4315733 L136.27392,145.739947 L136.27392,198.826667 L119.373653,198.826667 L119.373653,144.745813 Z" fill="#FFFFFF"/>
  </g>
</svg>

<svg width="256" height="256" xmlns="http://www.w3.org/2000/svg" preserveAspectRatio="xMidYMid"><path fill="#FB651E" d="M0 0h256v256H0z"/><path d="M119.374 144.746 75.433 62.432h20.081l25.848 52.092c.398.928.862 1.889 1.392 2.883.53.994.994 2.022 1.391 3.082.266.398.464.762.597 1.094.133.33.265.63.398.894a65.643 65.643 0 0 1 1.79 3.877c.53 1.26.993 2.42 1.39 3.48 1.061-2.254 2.221-4.673 3.48-7.257 1.26-2.585 2.552-5.27 3.877-8.053l26.246-52.092h18.69l-44.34 83.308v53.087h-16.9v-54.081Z" fill="#FFF"/></svg>
